resources/dark/controls/D.svg

<svg xmlns="http://www.w3.org/2000/svg" viewBox="0 0 16 16"><style>.icon-canvas-transparent{opacity:0;fill:#f6f6f6}.icon-vs-out{fill:#f6f6f6}.icon-vs-bg{fill:#424242}.icon-vs-fg{fill:#f0eff1}.icon-vs-blue{fill:#1ba1e2}.st0{fill:none}.st1{fill:#424242}</style><path class="icon-canvas-transparent" d="M0 0h16v16H0z" id="canvas"/><path class="icon-vs-out" d="M16 0v16H2V8H0V0h16z" id="outline"/><g id="iconBg"><path class="st0" d="M12 5l2-2h-4zM4 14h10V7H4v7zm2-6h3v1H6V8zm0 2h6v1H6v-1zm0 2h3v1H6v-1zM3 3h6v3H3z"/><path class="icon-vs-bg" d="M6 8h3v1H6zM6 12h3v1H6zM6 10h6v1H6z"/><path class="st0" d="M6 8h3v1H6zM6 12h3v1H6zM6 10h6v1H6z"/><path class="st0" d="M4 7h10v7H4z"/><path class="icon-vs-bg" d="M14 14H4V7H3v8h12V7h-1z"/><path class="st1" d="M3 3h6v3H3zM12 5l2-2h-4z"/></g><path class="icon-vs-blue" d="M1 1v6h14V1H1zm8 5H3V3h6v3zm3-1l-2-2h4l-2 2z" id="colorImportance"/><path class="icon-vs-fg" d="M14 7H4m0 0v7h10V7M6 8h3v1H6V8zm0 2h6v1H6v-1zm0 2h3v1H6v-1zm6-7l-2-2h4l-2 2zM9 6H3V3h6v3z" id="iconFg"/></svg>

<svg xmlns="http://www.w3.org/2000/svg" viewBox="0 0 16 16"><defs><style>.cls-1{fill:#424242;}.cls-2{fill:none;}.cls-3{fill:#f6f6f6;}.cls-4{fill:#1ba1e2;}</style></defs><title>ComboBox_16x</title><g id="Layer_2" data-name="Layer 2"><g id="Layer_1-2" data-name="Layer 1"><path id="outline" class="cls-1" d="M16,0V16H2V8H0V0Z"/><path class="cls-2" d="M12,5l2-2H10ZM4,14H14V7H4ZM6,8H9V9H6Zm0,2h6v1H6Zm0,2H9v1H6ZM3,3H9V6H3Z"/><path class="cls-3" d="M6,8H9V9H6Zm0,4H9v1H6Zm0-2h6v1H6Z"/><path class="cls-2" d="M6,8H9V9H6Zm0,4H9v1H6Zm0-2h6v1H6Z"/><path class="cls-2" d="M4,7H14v7H4Z"/><path class="cls-3" d="M14,14H4V7H3v8H15V7H14Z"/><path class="cls-1" d="M3,3H9V6H3Zm9,2,2-2H10Z"/><path id="colorImportance" class="cls-4" d="M1,1V7H15V1ZM9,6H3V3H9Zm3-1L10,3h4Z"/><line class="cls-1" x1="14" y1="7" x2="4" y2="7"/><polyline class="cls-1" points="4 7 4 14 14 14 14 7"/><rect class="cls-3" x="6" y="8" width="3" height="1"/><rect class="cls-3" x="6" y="10" width="6" height="1"/><rect class="cls-3" x="6" y="12" width="3" height="1"/><polygon class="cls-3" points="12 5 10 3 14 3 12 5"/><rect class="cls-3" x="3" y="3" width="6" height="3"/></g></g></svg>
